public/images/symbol.svg

<svg width="52" height="52" viewBox="0 0 52 52" fill="none" xmlns="http://www.w3.org/2000/svg">
<path d="M13.8586 18.58C14.5054 17.4829 15.2928 16.4702 16.1858 15.5841L8.54327 7.20117C6.62386 9.0367 4.97865 11.1676 3.69202 13.5165L13.8515 18.58H13.8586Z" fill="#56C22B"/>
<path d="M32.5887 12.6588C33.7488 13.1862 34.8245 13.8684 35.7948 14.6701L43.4584 6.30125C41.4405 4.55715 39.1485 3.12248 36.6666 2.06055L32.5887 12.6588Z" fill="#DDA63A"/>
<path d="M50.1374 15.1838L39.9779 20.2473C40.463 21.3796 40.8075 22.5822 40.9974 23.834L52.2959 22.765C51.9654 20.0926 51.2202 17.5397 50.1374 15.1768" fill="#C5192D"/>
<path d="M39.2538 18.7769L49.4063 13.7134C48.1478 11.3785 46.5448 9.25467 44.6605 7.41211L36.9969 15.781C37.8688 16.6741 38.6281 17.6868 39.2468 18.7769" fill="#4C9F38"/>
<path d="M11.8407 25.9927C11.8407 25.7677 11.8477 25.5356 11.8548 25.3106L0.556246 24.2979C0.521092 24.8605 0.5 25.4231 0.5 25.9927C0.5 28.1588 0.767171 30.2686 1.26636 32.2799L12.1782 29.1504C11.9532 28.1307 11.8337 27.0758 11.8337 25.9927" fill="#3F7E44"/>
<path d="M37.8336 35.2822C37.0321 36.2598 36.104 37.1318 35.0775 37.8773L41.0467 47.5402C43.2614 46.0422 45.23 44.2067 46.8893 42.111L37.8336 35.2822Z" fill="#FCC30B"/>
<path d="M41.1593 25.9929C41.1593 27.0619 41.0468 28.1097 40.8218 29.1084L51.7336 32.2449C52.2328 30.2406 52.4999 28.1449 52.4999 25.9929C52.4999 25.4584 52.4789 24.9239 52.4507 24.3965L41.1522 25.4655C41.1522 25.6413 41.1593 25.8171 41.1593 25.9929Z" fill="#FF3A21"/>
<path d="M15.3492 35.5012L6.32166 42.3651C8.00202 44.4327 9.99174 46.233 12.2205 47.7099L18.1897 38.054C17.1421 37.3297 16.1859 36.4646 15.3562 35.4941" fill="#FF9F24"/>
<path d="M12.0235 23.6789C12.2274 22.399 12.593 21.1823 13.1062 20.036L2.95376 14.9795C1.82883 17.3636 1.06248 19.9516 0.710938 22.6662L12.0235 23.6789Z" fill="#0A97D9"/>
<path d="M39.6547 48.4135L33.6996 38.7646C32.6169 39.3765 31.4498 39.8547 30.2194 40.1782L32.3216 51.3391C34.937 50.7413 37.4048 49.7426 39.6547 48.4135Z" fill="#A21942"/>
<path d="M40.3858 30.6973C39.9921 31.8577 39.4578 32.9548 38.7969 33.9675L47.8596 40.8032C49.329 38.6864 50.4961 36.3445 51.2906 33.8338L40.3858 30.6973Z" fill="#26BDE2"/>
<path d="M28.6163 40.502C27.9273 40.6004 27.2172 40.6567 26.5 40.6567C25.9235 40.6567 25.354 40.6215 24.7915 40.5582L22.6893 51.7191C23.9338 51.9019 25.2064 52.0004 26.493 52.0004C27.9273 52.0004 29.3334 51.8808 30.7045 51.6558L28.6022 40.502H28.6163Z" fill="#FF6924"/>
<path d="M27.4351 11.3646C28.6936 11.442 29.9099 11.6881 31.063 12.0679L35.1408 1.46963C32.7152 0.611646 30.1279 0.105293 27.4351 0.00683594V11.3576V11.3646Z" fill="#E8203A"/>
<path d="M23.1815 40.2755C21.9089 39.9801 20.7066 39.5159 19.5817 38.9111L13.6125 48.567C15.9116 49.8821 18.4216 50.8526 21.0793 51.4223L23.1815 40.2684V40.2755Z" fill="#DD1367"/>
<path d="M22.0918 12.0118C23.2729 11.6391 24.5104 11.414 25.797 11.3507V0C23.069 0.0703267 20.4465 0.569646 17.9928 1.4206L22.0988 12.0048L22.0918 12.0118Z" fill="#19486A"/>
<path d="M14.3577 34.1995C13.6406 33.1376 13.05 31.9702 12.6282 30.7324L1.72339 33.862C2.54599 36.464 3.77638 38.8903 5.32316 41.0634L14.3577 34.1995Z" fill="#BF8B2E"/>
<path d="M17.4162 14.4949C18.3724 13.7354 19.427 13.0954 20.5589 12.5891L16.46 2.00488C14.0203 3.03165 11.7704 4.41709 9.77368 6.10493L17.4232 14.4949H17.4162Z" fill="#00689D"/>
</svg>

<svg xmlns="http://www.w3.org/2000/svg" width="52" height="52" fill="none"><path fill="#56C22B" d="M13.859 18.58a14.9 14.9 0 0 1 2.327-2.996L8.543 7.201a26.1 26.1 0 0 0-4.851 6.316l10.16 5.063z"/><path fill="#DDA63A" d="M32.589 12.659c1.16.527 2.236 1.21 3.206 2.011l7.663-8.369a26 26 0 0 0-6.791-4.24z"/><path fill="#C5192D" d="m50.137 15.184-10.16 5.063c.486 1.133.83 2.335 1.02 3.587l11.299-1.069a25.8 25.8 0 0 0-2.159-7.588"/><path fill="#4C9F38" d="m39.254 18.777 10.152-5.064a26.2 26.2 0 0 0-4.745-6.3l-7.664 8.368a14.7 14.7 0 0 1 2.25 2.996"/><path fill="#3F7E44" d="M11.84 25.993c0-.225.008-.457.015-.682L.556 24.298a26.096 26.096 0 0 0 .71 7.982l10.912-3.13a14.6 14.6 0 0 1-.344-3.157"/><path fill="#FCC30B" d="M37.834 35.282a14.8 14.8 0 0 1-2.757 2.595l5.97 9.663a26.1 26.1 0 0 0 5.842-5.429z"/><path fill="#FF3A21" d="M41.16 25.993c0 1.069-.113 2.117-.338 3.115l10.912 3.137a25.9 25.9 0 0 0 .717-7.848l-11.299 1.069c0 .175.007.351.007.527"/><path fill="#FF9F24" d="m15.35 35.501-9.028 6.864a26.4 26.4 0 0 0 5.898 5.345l5.97-9.656a14.9 14.9 0 0 1-2.834-2.56"/><path fill="#0A97D9" d="M12.024 23.679c.203-1.28.569-2.497 1.082-3.643L2.954 14.979A25.8 25.8 0 0 0 .71 22.667z"/><path fill="#A21942" d="m39.655 48.414-5.955-9.65a14.6 14.6 0 0 1-3.48 1.414l2.102 11.161a25.7 25.7 0 0 0 7.333-2.925"/><path fill="#26BDE2" d="M40.386 30.697a14.5 14.5 0 0 1-1.59 3.27l9.064 6.836a26 26 0 0 0 3.43-6.97z"/><path fill="#FF6924" d="M28.616 40.502c-.689.098-1.399.155-2.116.155q-.864-.002-1.709-.099L22.69 51.72a25.986 25.986 0 0 0 8.015-.063l-2.102-11.154z"/><path fill="#E8203A" d="M27.435 11.365c1.259.077 2.475.323 3.628.703L35.141 1.47A25.9 25.9 0 0 0 27.435.007v11.358"/><path fill="#DD1367" d="M23.182 40.276a14.5 14.5 0 0 1-3.6-1.365l-5.97 9.656a26 26 0 0 0 7.467 2.855l2.102-11.154z"/><path fill="#19486A" d="M22.092 12.012a14.7 14.7 0 0 1 3.705-.661V0c-2.728.07-5.35.57-7.804 1.42l4.106 10.585z"/><path fill="#BF8B2E" d="M14.358 34.2a14.7 14.7 0 0 1-1.73-3.468l-10.905 3.13a25.9 25.9 0 0 0 3.6 7.201z"/><path fill="#00689D" d="M17.416 14.495c.956-.76 2.011-1.4 3.143-1.906L16.46 2.005a26 26 0 0 0-6.686 4.1l7.65 8.39z"/></svg>
